assets/logomark.svg

<?xml version="1.0" encoding="UTF-8" standalone="no"?><!DOCTYPE svg PUBLIC "-//W3C//DTD SVG 1.1//EN" "http://www.w3.org/Graphics/SVG/1.1/DTD/svg11.dtd"><svg width="100%" height="100%" viewBox="0 0 512 128" version="1.1" xmlns="http://www.w3.org/2000/svg" xmlns:xlink="http://www.w3.org/1999/xlink" xml:space="preserve" xmlns:serif="http://www.serif.com/" style="fill-rule:evenodd;clip-rule:evenodd;stroke-linecap:square;stroke-miterlimit:3;"><g><circle cx="72.465" cy="64" r="46.484" style="fill:#46226e;"/><g><path d="M94.34,46.227l-30.34,17.773" style="fill-rule:nonzero;stroke:#dfd3ed;stroke-width:2.73px;"/><circle cx="94.34" cy="46.227" r="6.836" style="fill:#c6b0de;"/><path d="M61.266,66.734l33.074,15.039" style="fill-rule:nonzero;stroke:#dfd3ed;stroke-width:2.73px;"/><circle cx="59.898" cy="65.367" r="6.836" style="fill:#936fbd;"/><circle cx="94.34" cy="81.773" r="6.836" style="fill:#6b3e9f;"/></g><g><path d="M59.316,41.268c0,-1.325 -1.075,-2.4 -2.402,-2.4l-45.463,0c-1.325,0 -2.4,1.075 -2.4,2.4l0,45.464c0,1.325 1.075,2.4 2.4,2.4l45.463,0c1.327,0 2.402,-1.075 2.402,-2.4l0,-45.464Z" style="fill:#5c2d91;"/><path d="M45.714,50.111l0,28.431l-5.858,0l0,-12.185l-11.423,0l0,12.185l-5.858,0l0,-28.431l5.858,0l0,11.521l11.423,0l0,-11.521l5.858,0Z" style="fill:#fff;fill-rule:nonzero;"/></g></g><path d="M159.362,49.421c-2.706,-2.374 -6.019,-2.982 -9.222,-2.761c-2.706,0.166 -5.633,1.16 -7.566,3.314l-0.938,1.104l0,-13.585l-5.136,0l0,39.76l5.798,0l0,-13.087c0,-2.154 0,-4.418 0.387,-6.075c0.331,-1.822 1.16,-3.424 2.43,-4.418c1.215,-0.994 2.706,-1.491 4.362,-1.601c2.099,-0.055 3.921,0.497 5.191,1.657c2.319,1.988 2.761,5.467 2.761,9.277l0,14.247l5.854,0l0,-14.468c0.055,-4.97 -0.276,-10.161 -3.921,-13.364Z" style="fill-rule:nonzero;"/><path d="M196.526,47.433l-8.614,23.304l-9.057,-23.304l-5.853,0l12.204,30.704c-1.436,3.921 -2.154,5.246 -3.258,6.074c-1.049,0.718 -2.154,0.773 -3.976,0.718l0,5.578c3.368,0 5.135,-0.056 6.903,-1.326c1.932,-1.435 3.092,-3.92 4.252,-6.958l13.198,-34.79l-5.799,0Z" style="fill-rule:nonzero;"/><path d="M236.949,51.354c-2.485,-3.092 -6.351,-4.749 -10.437,-4.749c-3.589,0 -6.958,1.325 -9.333,3.645l0,-2.817l-5.135,0l0,43.074l5.798,0l0,-15.463c2.319,2.044 5.412,3.038 8.78,3.038c4.032,0 7.842,-1.712 10.327,-4.805c2.485,-3.092 3.369,-6.958 3.369,-10.934c0,-4.031 -0.994,-7.952 -3.369,-10.989Zm-4.639,18.389c-1.491,2.154 -3.976,3.093 -6.461,3.093c-2.595,0 -4.859,-0.884 -6.405,-2.706c-1.602,-1.933 -2.265,-4.86 -2.265,-7.787c0,-2.982 0.663,-5.853 2.265,-7.786c1.435,-1.878 3.699,-2.706 6.184,-2.706c2.762,0 5.136,0.884 6.627,3.037c1.381,1.878 1.933,4.584 1.933,7.455c0,2.817 -0.497,5.523 -1.878,7.4Z" style="fill-rule:nonzero;"/><path d="M256.221,63.945l22.255,0c0.276,-4.86 -0.497,-9.278 -3.258,-12.646c-2.706,-3.203 -6.24,-4.694 -10.603,-4.694c-4.307,0 -8.394,1.657 -11.099,4.915c-2.375,2.982 -3.479,6.958 -3.479,11.099c0,3.756 1.049,7.511 3.479,10.548c2.65,3.203 7.013,4.915 11.431,4.915c2.705,0 5.522,-0.773 7.841,-2.209c2.264,-1.381 4.142,-3.59 5.246,-6.185l-5.632,-1.822c-0.608,1.27 -1.436,2.374 -2.762,3.313c-1.38,0.994 -3.037,1.436 -5.025,1.436c-2.595,0 -5.025,-0.994 -6.461,-2.982c-1.215,-1.602 -1.767,-3.59 -1.933,-5.688Zm8.394,-12.204c2.485,-0.056 4.915,0.883 6.351,2.761c1.049,1.38 1.436,2.982 1.601,4.804l-16.235,0c0.276,-1.712 0.773,-3.258 1.822,-4.639c1.657,-2.153 4.087,-2.982 6.461,-2.926Z" style="fill-rule:nonzero;"/><path d="M303.989,46.66c-2.154,0.055 -4.308,0.663 -6.13,1.988c-1.215,0.884 -2.154,1.933 -2.816,3.093l0,-4.308l-5.136,0l0,29.82l5.798,0l0,-15.02c0,-3.313 0.332,-6.019 2.43,-8.007c1.215,-1.27 3.092,-2.044 5.357,-2.154c1.822,-0.11 3.589,0.166 4.97,0.663l0,-5.412c-1.436,-0.552 -2.982,-0.773 -4.473,-0.663Z" style="fill-rule:nonzero;"/><path d="M341.319,55.275c-0.994,-2.982 -3.369,-5.798 -6.24,-7.179c-1.988,-1.049 -4.252,-1.491 -6.296,-1.491c-2.098,0 -4.252,0.166 -6.461,1.104c-2.926,1.271 -5.135,4.087 -5.135,7.511c0,1.435 0.497,3.534 1.767,4.914c1.38,1.436 3.368,2.32 5.135,2.982c1.436,0.497 2.651,0.829 6.903,2.044c2.651,0.773 5.191,1.491 5.191,3.865c0,1.16 -0.552,2.043 -1.546,2.761c-1.16,0.829 -3.479,1.215 -5.081,1.215c-2.208,0 -4.417,-0.607 -5.964,-2.153c-0.994,-0.939 -1.656,-2.32 -2.098,-3.7l-5.246,1.491c0.497,1.877 1.436,3.865 3.203,5.743c2.706,2.816 6.129,3.7 10.05,3.7c2.872,0 5.522,-0.442 8.007,-1.988c2.43,-1.491 3.976,-4.308 3.976,-7.069c0,-4.804 -3.81,-7.731 -9.111,-9.167c-2.375,-0.662 -4.142,-1.159 -5.799,-1.656c-2.429,-0.663 -4.086,-1.326 -4.086,-3.203c0,-2.099 2.982,-3.424 5.964,-3.314c3.313,0.056 6.13,1.547 7.4,4.915l5.467,-1.325Z" style="fill-rule:nonzero;"/><path d="M377.821,51.354c-2.485,-3.092 -6.351,-4.749 -10.437,-4.749c-3.59,0 -6.958,1.325 -9.333,3.645l0,-2.817l-5.136,0l0,43.074l5.799,0l0,-15.463c2.319,2.044 5.411,3.038 8.78,3.038c4.031,0 7.842,-1.712 10.327,-4.805c2.485,-3.092 3.368,-6.958 3.368,-10.934c0,-4.031 -0.994,-7.952 -3.368,-10.989Zm-4.639,18.389c-1.491,2.154 -3.976,3.093 -6.461,3.093c-2.596,0 -4.86,-0.884 -6.406,-2.706c-1.601,-1.933 -2.264,-4.86 -2.264,-7.787c0,-2.982 0.663,-5.853 2.264,-7.786c1.436,-1.878 3.7,-2.706 6.185,-2.706c2.761,0 5.136,0.884 6.627,3.037c1.38,1.878 1.932,4.584 1.932,7.455c0,2.817 -0.497,5.523 -1.877,7.4Z" style="fill-rule:nonzero;"/><path d="M416.807,77.253l0,-18.057c0,-3.645 -0.883,-7.179 -3.7,-9.554c-2.043,-1.767 -5.19,-3.037 -8.283,-3.037c-5.08,0 -9.001,1.657 -12.094,5.025l3.479,3.811c2.265,-2.485 5.026,-3.369 8.118,-3.369c3.866,0 6.406,1.878 6.682,5.357c-5.08,0.773 -11.155,1.38 -14.855,3.147c-3.755,1.823 -5.246,4.584 -5.246,8.394c0,5.577 3.976,9.112 9.83,9.112c4.804,0 8.173,-1.326 10.989,-5.081l0,4.252l5.08,0Zm-6.847,-8.338c-1.546,2.65 -4.418,4.252 -8.007,4.252c-3.038,0 -5.302,-1.878 -5.302,-4.639c0,-2.595 2.54,-4.141 5.522,-4.804c2.32,-0.497 5.578,-1.105 8.891,-1.602c0,2.651 0.055,4.86 -1.104,6.793Z" style="fill-rule:nonzero;"/><path d="M455.076,55.717c-0.828,-3.203 -2.816,-5.633 -5.356,-7.179c-2.375,-1.436 -4.584,-1.933 -7.621,-1.933c-4.694,0 -8.228,1.601 -10.989,4.915c-2.485,3.037 -3.479,6.792 -3.479,10.823c0,3.976 0.994,7.676 3.479,10.879c2.595,3.313 6.24,4.86 10.934,4.86c3.424,0 5.743,-0.608 8.228,-2.375c2.209,-1.546 3.921,-4.031 4.804,-6.627l-5.909,-1.435c-0.552,1.491 -1.27,2.65 -2.54,3.644c-1.27,0.994 -2.982,1.326 -4.583,1.326c-2.596,0 -4.86,-0.994 -6.296,-2.982c-1.491,-1.988 -1.988,-4.639 -1.988,-7.29c0,-2.65 0.497,-5.356 1.988,-7.344c1.436,-1.988 3.7,-2.927 6.296,-2.927c1.601,0 3.203,0.442 4.473,1.381c1.325,0.938 2.264,2.429 2.816,3.865l5.743,-1.601Z" style="fill-rule:nonzero;"/><path d="M469.655,63.945l22.254,0c0.276,-4.86 -0.497,-9.278 -3.258,-12.646c-2.706,-3.203 -6.24,-4.694 -10.602,-4.694c-4.308,0 -8.394,1.657 -11.1,4.915c-2.375,2.982 -3.479,6.958 -3.479,11.099c0,3.756 1.049,7.511 3.479,10.548c2.651,3.203 7.013,4.915 11.431,4.915c2.706,0 5.522,-0.773 7.841,-2.209c2.265,-1.381 4.142,-3.59 5.247,-6.185l-5.633,-1.822c-0.608,1.27 -1.436,2.374 -2.761,3.313c-1.381,0.994 -3.037,1.436 -5.025,1.436c-2.596,0 -5.026,-0.994 -6.461,-2.982c-1.215,-1.602 -1.768,-3.59 -1.933,-5.688Zm8.394,-12.204c2.485,-0.056 4.914,0.883 6.35,2.761c1.049,1.38 1.436,2.982 1.602,4.804l-16.236,0c0.276,-1.712 0.773,-3.258 1.823,-4.639c1.656,-2.153 4.086,-2.982 6.461,-2.926Z" style="fill-rule:nonzero;"/></svg>

<?xml version="1.0" encoding="UTF-8" standalone="no"?>
<!DOCTYPE svg PUBLIC "-//W3C//DTD SVG 1.1//EN" "http://www.w3.org/Graphics/SVG/1.1/DTD/svg11.dtd">
<svg width="100%" height="100%" viewBox="0 0 512 128" version="1.1" xmlns="http://www.w3.org/2000/svg" xmlns:xlink="http://www.w3.org/1999/xlink" xml:space="preserve" xmlns:serif="http://www.serif.com/" style="fill-rule:evenodd;clip-rule:evenodd;stroke-linecap:square;stroke-miterlimit:3;">
    <g>
        <path d="M159.362,49.421C156.656,47.047 153.343,46.439 150.14,46.66C147.434,46.826 144.507,47.82 142.574,49.974L141.636,51.078L141.636,37.493L136.5,37.493L136.5,77.253L142.298,77.253L142.298,64.166C142.298,62.012 142.298,59.748 142.685,58.091C143.016,56.269 143.845,54.667 145.115,53.673C146.33,52.679 147.821,52.182 149.477,52.072C151.576,52.017 153.398,52.569 154.668,53.729C156.987,55.717 157.429,59.196 157.429,63.006L157.429,77.253L163.283,77.253L163.283,62.785C163.338,57.815 163.007,52.624 159.362,49.421Z" style="fill-rule:nonzero;"/>
        <path d="M196.526,47.433L187.912,70.737L178.855,47.433L173.002,47.433L185.206,78.137C183.77,82.058 183.052,83.383 181.948,84.211C180.899,84.929 179.794,84.984 177.972,84.929L177.972,90.507C181.34,90.507 183.107,90.451 184.875,89.181C186.807,87.746 187.967,85.261 189.127,82.223L202.325,47.433L196.526,47.433Z" style="fill-rule:nonzero;"/>
        <path d="M236.949,51.354C234.464,48.262 230.598,46.605 226.512,46.605C222.923,46.605 219.554,47.93 217.179,50.25L217.179,47.433L212.044,47.433L212.044,90.507L217.842,90.507L217.842,75.044C220.161,77.088 223.254,78.082 226.622,78.082C230.654,78.082 234.464,76.37 236.949,73.277C239.434,70.185 240.318,66.319 240.318,62.343C240.318,58.312 239.324,54.391 236.949,51.354ZM232.31,69.743C230.819,71.897 228.334,72.836 225.849,72.836C223.254,72.836 220.99,71.952 219.444,70.13C217.842,68.197 217.179,65.27 217.179,62.343C217.179,59.361 217.842,56.49 219.444,54.557C220.879,52.679 223.143,51.851 225.628,51.851C228.39,51.851 230.764,52.735 232.255,54.888C233.636,56.766 234.188,59.472 234.188,62.343C234.188,65.16 233.691,67.866 232.31,69.743Z" style="fill-rule:nonzero;"/>
        <path d="M256.221,63.945L278.476,63.945C278.752,59.085 277.979,54.667 275.218,51.299C272.512,48.096 268.978,46.605 264.615,46.605C260.308,46.605 256.221,48.262 253.516,51.52C251.141,54.502 250.037,58.478 250.037,62.619C250.037,66.375 251.086,70.13 253.516,73.167C256.166,76.37 260.529,78.082 264.947,78.082C267.652,78.082 270.469,77.309 272.788,75.873C275.052,74.492 276.93,72.283 278.034,69.688L272.402,67.866C271.794,69.136 270.966,70.24 269.64,71.179C268.26,72.173 266.603,72.615 264.615,72.615C262.02,72.615 259.59,71.621 258.154,69.633C256.939,68.031 256.387,66.043 256.221,63.945ZM264.615,51.741C267.1,51.685 269.53,52.624 270.966,54.502C272.015,55.882 272.402,57.484 272.567,59.306L256.332,59.306C256.608,57.594 257.105,56.048 258.154,54.667C259.811,52.514 262.241,51.685 264.615,51.741Z" style="fill-rule:nonzero;"/>
        <path d="M303.989,46.66C301.835,46.715 299.681,47.323 297.859,48.648C296.644,49.532 295.705,50.581 295.043,51.741L295.043,47.433L289.907,47.433L289.907,77.253L295.705,77.253L295.705,62.233C295.705,58.92 296.037,56.214 298.135,54.226C299.35,52.956 301.227,52.182 303.492,52.072C305.314,51.962 307.081,52.238 308.462,52.735L308.462,47.323C307.026,46.771 305.48,46.55 303.989,46.66Z" style="fill-rule:nonzero;"/>
        <path d="M341.319,55.275C340.325,52.293 337.95,49.477 335.079,48.096C333.091,47.047 330.827,46.605 328.783,46.605C326.685,46.605 324.531,46.771 322.322,47.709C319.396,48.98 317.187,51.796 317.187,55.22C317.187,56.655 317.684,58.754 318.954,60.134C320.334,61.57 322.322,62.454 324.089,63.116C325.525,63.613 326.74,63.945 330.992,65.16C333.643,65.933 336.183,66.651 336.183,69.025C336.183,70.185 335.631,71.068 334.637,71.786C333.477,72.615 331.158,73.001 329.556,73.001C327.348,73.001 325.139,72.394 323.592,70.848C322.598,69.909 321.936,68.528 321.494,67.148L316.248,68.639C316.745,70.516 317.684,72.504 319.451,74.382C322.157,77.198 325.58,78.082 329.501,78.082C332.373,78.082 335.023,77.64 337.508,76.094C339.938,74.603 341.484,71.786 341.484,69.025C341.484,64.221 337.674,61.294 332.373,59.858C329.998,59.196 328.231,58.699 326.574,58.202C324.145,57.539 322.488,56.876 322.488,54.999C322.488,52.9 325.47,51.575 328.452,51.685C331.765,51.741 334.582,53.232 335.852,56.6L341.319,55.275Z" style="fill-rule:nonzero;"/>
        <path d="M377.821,51.354C375.336,48.262 371.47,46.605 367.384,46.605C363.794,46.605 360.426,47.93 358.051,50.25L358.051,47.433L352.915,47.433L352.915,90.507L358.714,90.507L358.714,75.044C361.033,77.088 364.125,78.082 367.494,78.082C371.525,78.082 375.336,76.37 377.821,73.277C380.306,70.185 381.189,66.319 381.189,62.343C381.189,58.312 380.195,54.391 377.821,51.354ZM373.182,69.743C371.691,71.897 369.206,72.836 366.721,72.836C364.125,72.836 361.861,71.952 360.315,70.13C358.714,68.197 358.051,65.27 358.051,62.343C358.051,59.361 358.714,56.49 360.315,54.557C361.751,52.679 364.015,51.851 366.5,51.851C369.261,51.851 371.636,52.735 373.127,54.888C374.507,56.766 375.059,59.472 375.059,62.343C375.059,65.16 374.562,67.866 373.182,69.743Z" style="fill-rule:nonzero;"/>
        <path d="M416.807,77.253L416.807,59.196C416.807,55.551 415.924,52.017 413.107,49.642C411.064,47.875 407.917,46.605 404.824,46.605C399.744,46.605 395.823,48.262 392.73,51.63L396.209,55.441C398.474,52.956 401.235,52.072 404.327,52.072C408.193,52.072 410.733,53.95 411.009,57.429C405.929,58.202 399.854,58.809 396.154,60.576C392.399,62.399 390.908,65.16 390.908,68.97C390.908,74.547 394.884,78.082 400.738,78.082C405.542,78.082 408.911,76.756 411.727,73.001L411.727,77.253L416.807,77.253ZM409.96,68.915C408.414,71.565 405.542,73.167 401.953,73.167C398.915,73.167 396.651,71.289 396.651,68.528C396.651,65.933 399.191,64.387 402.173,63.724C404.493,63.227 407.751,62.619 411.064,62.122C411.064,64.773 411.119,66.982 409.96,68.915Z" style="fill-rule:nonzero;"/>
        <path d="M455.076,55.717C454.248,52.514 452.26,50.084 449.72,48.538C447.345,47.102 445.136,46.605 442.099,46.605C437.405,46.605 433.871,48.206 431.11,51.52C428.625,54.557 427.631,58.312 427.631,62.343C427.631,66.319 428.625,70.019 431.11,73.222C433.705,76.535 437.35,78.082 442.044,78.082C445.468,78.082 447.787,77.474 450.272,75.707C452.481,74.161 454.193,71.676 455.076,69.08L449.167,67.645C448.615,69.136 447.897,70.295 446.627,71.289C445.357,72.283 443.645,72.615 442.044,72.615C439.448,72.615 437.184,71.621 435.748,69.633C434.257,67.645 433.76,64.994 433.76,62.343C433.76,59.693 434.257,56.987 435.748,54.999C437.184,53.011 439.448,52.072 442.044,52.072C443.645,52.072 445.247,52.514 446.517,53.453C447.842,54.391 448.781,55.882 449.333,57.318L455.076,55.717Z" style="fill-rule:nonzero;"/>
        <path d="M469.655,63.945L491.909,63.945C492.185,59.085 491.412,54.667 488.651,51.299C485.945,48.096 482.411,46.605 478.049,46.605C473.741,46.605 469.655,48.262 466.949,51.52C464.574,54.502 463.47,58.478 463.47,62.619C463.47,66.375 464.519,70.13 466.949,73.167C469.6,76.37 473.962,78.082 478.38,78.082C481.086,78.082 483.902,77.309 486.221,75.873C488.486,74.492 490.363,72.283 491.468,69.688L485.835,67.866C485.227,69.136 484.399,70.24 483.074,71.179C481.693,72.173 480.037,72.615 478.049,72.615C475.453,72.615 473.023,71.621 471.588,69.633C470.373,68.031 469.82,66.043 469.655,63.945ZM478.049,51.741C480.534,51.685 482.963,52.624 484.399,54.502C485.448,55.882 485.835,57.484 486.001,59.306L469.765,59.306C470.041,57.594 470.538,56.048 471.588,54.667C473.244,52.514 475.674,51.685 478.049,51.741Z" style="fill-rule:nonzero;"/>
        <g transform="matrix(0.125,0,0,0.125,64,64)">
            <g transform="matrix(1,0,0,1,-512,-512)">
                <g>
                    <path d="M512,61C760.914,61 963,263.086 963,512C963,760.914 760.914,963 512,963C263.086,963 61,760.914 61,512C61,263.086 263.086,61 512,61Z" style="fill:url(#_Linear1);fill-rule:nonzero;"/>
                    <g>
                        <path d="M924,512C924,739.389 739.389,924 512,924C284.611,924 100,739.389 100,512C100,284.611 284.611,100 512,100C739.389,100 924,284.611 924,512Z" style="fill:url(#_Radial2);fill-rule:nonzero;"/>
                        <g>
                            <clipPath id="_clip3">
                                <path d="M924,512C924,739.389 739.389,924 512,924C284.611,924 100,739.389 100,512C100,284.611 284.611,100 512,100C739.389,100 924,284.611 924,512Z"/>
                            </clipPath>
                            <g clip-path="url(#_clip3)">
                                <g>
                                    <path d="M238,360C295.197,285.459 375.604,257.821 477,255C578.52,253.771 646.196,309.114 680,421C687.544,471.569 684.554,519.246 671,564C675.111,576.014 683.121,583.691 695,587C715.324,582.169 729.334,569.513 737,549C736.711,489.315 733.721,442.992 728,410C747.516,373.313 773.859,370.323 807,401C861.984,489.569 863.66,571.912 812,648C785.405,684.18 746.415,708.19 695,720C652.148,718.82 617.824,714.163 592,706C486.826,769.085 386.836,773.762 292,720C205.635,611.833 173.334,488.563 238,360Z" style="fill:url(#_Linear4);fill-rule:nonzero;"/>
                                    <g>
                                        <path d="M602.409,773.749C482.57,695.717 306.969,619.474 126.706,654.912C198.381,718.826 290.006,753.401 276.782,803.086L602.409,773.749Z" style="fill:url(#_Linear5);fill-rule:nonzero;"/>
                                        <path d="M820.149,828.878C760.745,894.654 658.821,936.37 514.347,953.998C384.053,947.037 270.948,893.682 175,793.905C434.437,723.169 649.497,734.836 820.149,828.878Z" style="fill:url(#_Linear6);fill-rule:nonzero;"/>
                                        <path d="M653.396,768.646C527.357,720.669 349.042,683.971 185,746.594C263.265,790.499 355.436,805.054 351.273,851.18L653.396,768.646Z" style="fill:url(#_Linear7);fill-rule:nonzero;"/>
                                    </g>
                                    <path d="M523,644C548.476,652.094 565.102,674.42 586,681C619.78,682.401 650.155,665.915 668,673C687.177,680.298 692.854,695.975 685,720C650.656,778.986 497.06,764.977 486,690C490.825,659.361 503.168,644.038 523,644Z" style="fill:url(#_Linear8);fill-rule:nonzero;"/>
                                    <path d="M268,366C126.262,375.98 128.366,675.501 235,706C312.361,728.913 367.715,695.599 389,636L387,466C379.239,399.883 339.582,366.559 268,366Z" style="fill:url(#_Linear9);fill-rule:nonzero;"/>
                                </g>
                                <path d="M617.754,487.937C590.587,462.68 563.765,462.695 537.246,487.937" style="fill:none;stroke:black;stroke-width:3px;"/>
                            </g>
                        </g>
                    </g>
                </g>
            </g>
        </g>
    </g>
    <defs>
        <linearGradient id="_Linear1" x1="0" y1="0" x2="1" y2="0" gradientUnits="userSpaceOnUse" gradientTransform="matrix(-1.45053e-13,902,-902,-1.45053e-13,512,61)"><stop offset="0" style="stop-color:rgb(147,111,189);stop-opacity:1"/><stop offset="1" style="stop-color:rgb(83,41,131);stop-opacity:1"/></linearGradient>
        <radialGradient id="_Radial2" cx="0" cy="0" r="1" gradientUnits="userSpaceOnUse" gradientTransform="matrix(919.965,0.9165,0,412,512,512)"><stop offset="0" style="stop-color:rgb(92,86,142);stop-opacity:1"/><stop offset="1" style="stop-color:rgb(70,34,110);stop-opacity:1"/></radialGradient>
        <linearGradient id="_Linear4" x1="0" y1="0" x2="1" y2="0" gradientUnits="userSpaceOnUse" gradientTransform="matrix(1.42238e-13,502.118,-502.118,1.42238e-13,526.694,254.98)"><stop offset="0" style="stop-color:rgb(246,224,152);stop-opacity:1"/><stop offset="0.01" style="stop-color:rgb(246,224,152);stop-opacity:1"/><stop offset="0.98" style="stop-color:rgb(243,209,135);stop-opacity:1"/><stop offset="1" style="stop-color:rgb(243,209,135);stop-opacity:1"/></linearGradient>
        <linearGradient id="_Linear5" x1="0" y1="0" x2="1" y2="0" gradientUnits="userSpaceOnUse" gradientTransform="matrix(334.98,122.112,-122.112,334.98,196.547,667.537)"><stop offset="0" style="stop-color:rgb(83,41,131);stop-opacity:1"/><stop offset="1" style="stop-color:rgb(70,34,110);stop-opacity:1"/></linearGradient>
        <linearGradient id="_Linear6" x1="0" y1="0" x2="1" y2="0" gradientUnits="userSpaceOnUse" gradientTransform="matrix(5.459,206.595,-206.595,5.459,495.892,747.746)"><stop offset="0" style="stop-color:rgb(47,13,87);stop-opacity:1"/><stop offset="0.02" style="stop-color:rgb(47,13,87);stop-opacity:1"/><stop offset="1" style="stop-color:rgb(26,5,54);stop-opacity:1"/></linearGradient>
        <linearGradient id="_Linear7" x1="0" y1="0" x2="1" y2="0" gradientUnits="userSpaceOnUse" gradientTransform="matrix(336.259,49.4246,-49.4246,336.259,252.961,745.579)"><stop offset="0" style="stop-color:rgb(83,41,131);stop-opacity:1"/><stop offset="1" style="stop-color:rgb(70,34,110);stop-opacity:1"/></linearGradient>
        <linearGradient id="_Linear8" x1="0" y1="0" x2="1" y2="0" gradientUnits="userSpaceOnUse" gradientTransform="matrix(143.133,79.6096,-79.6096,143.133,515.644,660.488)"><stop offset="0" style="stop-color:white;stop-opacity:1"/><stop offset="0.98" style="stop-color:rgb(209,209,209);stop-opacity:1"/><stop offset="1" style="stop-color:rgb(209,209,209);stop-opacity:1"/></linearGradient>
        <linearGradient id="_Linear9" x1="0" y1="0" x2="1" y2="0" gradientUnits="userSpaceOnUse" gradientTransform="matrix(2.12647e-14,347.279,-347.279,2.12647e-14,273.5,366)"><stop offset="0" style="stop-color:rgb(248,251,202);stop-opacity:1"/><stop offset="1" style="stop-color:rgb(253,255,194);stop-opacity:1"/></linearGradient>
    </defs>
</svg>
